X:1
T:Convertere Domine
T:Convertere Domine
T:Bernhard Klingenstein
T:Source : Biciniorum---Leipzig---J.Apelio---1612. Editor : André Vierendeels (24/04/15).
T:Notes : Original clefs C1, C3 Editorial accidentals above the staff Dotted brackets indicate black notes
C:Berhard Klingenstein
%%score [ 1 2 ]
L:1/8
Q:1/4=76
M:4/2
K:C
V:1 treble nm="Superius" snm="S"
V:2 treble-8 nm="Tenor" snm="T"
V:1
 A4 c2 B2 A2 d4 c2 | d4 z2 A2 B3 B c2 BG | AB c2 B2 A2 G4 F4 | E2 GA BcdB c2 c2 B4 | %4
w: Con- ver- te- re, Do- mi-|ne, et e- ri- pe a- *|* * * * ni- mam me-|am, sal- * * * * * * vum me|
 A4 z2 G2 A2 B2 c3 B/A/ | B2 c2 d2 A2 c4 B3 A/G/ | ABcB cded cB A4 G2 | A4 z2 A3 A A2 G2 E2 | %8
w: fac pro- pter mi- se- * *|* ri- cor- di- am tu- * *||am, quo- ni- am non est|
 G2 A3 GAB cABc B2 G2 |"^b""^b" c2 BB F2 GA BGAB c3 B |"^b" AGFE/D/ E4 D2 A2 G2 FD | %11
w: in mor- _ _ _ _ _ _ _ _ te,|qui me- mor sit tu- * * * * * * *|* * * * * * i in in- fer- *|
 EB, D2 C F2 E F2 G2 A2 B2 | c3 c BcdB c2 B2 A2 A2- | A2 A2 A3 F _B2 A4 G2 | A4 z2 A2 A^GAG A2 A2 | %15
w: * * * * * * no au- tem quis|con- fi- te- * * * * bi- tur ti-|* bi la- bo- ra- * *|vi in ge- * * * * mi-|
 _B4 A3 G/F/ G4 F2 A2 | A4 G4 A4 z2 F2 | FGAB cdec cA d4 c2 |[M:3/2] d8 d4 | c6 A2 B4 | %20
w: tu me- * * * o, la-|va- * bo, la-|va- * * * * * * * * * * *|bo per|sin- gu- las|
 A6 F2 G2 A2 | _B4 A8 | A4 G6 E2 | F4 E2 F2 G2 A2 | G2 F2 F2 ED E4 |[M:4/2] D2 A2 A2 A4 A2 d3 c | %26
w: no- * * *|* ctes,|per sin- gu-|las no- * * *||ctes, lec- tum me- um, la- *|
 B3 d c3 B A3 c _B2 A2 | G2 A4 G2 F2 E2 D4 | z2 F2 E2 A2 G2 c2 BABc | d3 c BAcB AD d3 c/B/cB | %30
w: * * * * * * cry- mis|me- * * * * is,|stra- tum me- um ri- ga- * * *||
 AG A4 ^G2 A8 |] %31
w: * * * * bo.|
V:2
 z8 d4 f2 e2 | d2 g4 f2 g2 d2 e3 e | f2 ec de f3 e e3 d/c/ d2 | c4 B4 A2 cd efge | %4
w: Con- ver- te-|re, Do- mi- ne, et e- ri-|pe a- * * * * ni- mam _ _ _|me- * am, sal- * * * * *|
"^#" f2 f2 e4 d4 z2 c2 | d2 e2 f3 e/d/ e2 f2 g2 e2 | f2 e3 dcB ABcd B4 | %7
w: * vum me fac pro-|pter mi- se- * * * ri- cor- di-|am tu- * * * * * * * *|
"^b""^b" A2 d3 d d2 c2 A2 B2 c2- | cBcA defd ef e3 d e2 | c2 g2 ff e2 defd efeg | %10
w: am, quo- ni- am non est in mor-||te, qui me- mor sit tu- * * * * * * *|
 fe d4 ^c2 d4 z2 d2 | c2 _BG AF G2 F2 B2 A2 d2 | e2 f2 g3 g efge fe d2- | d2 ^c2 d4 G2 A2 _B4 | %14
w: * * * * i in|in- fer- * * * * no au- tem quis|con fi- te- bi- tur _ _ _ _ _ ti-|* * bi, la- bo- ra-|
 A2 d2 dcdc dedB ^c2 d2 |"^#" G2 d3 e f4 e2 f2 F2 | FGAB cdeB c3 d e2 d2 | z2 d2 c3 d efgf e4 | %18
w: vi in ge- * * * * * * * * mi-|tu me- * * * * o,|la- * * * va- * * * * * * bo,|la- va- * * * * * *|
[M:3/2] d12 | z4 z4 g4 | f6 d2 e4 | d6 c2 d2 e2 | f4 e8 | d4 c6 A2 | B2 d4 cB ^c4 | %25
w: bo|per|sin- gu- las|no- * * *|* ctes,|per sin- gu-|las no- * * *|
[M:4/2] d4 z2 d2 d2 d4 d2 | g3 f e3 g f3 e d2 A2 | c4 _B4 A4 z2 B2 | A2 d2 c2 f2 edef gfge | %29
w: ctes, le- ctum me- um,|la- * * * * * * cry-|mis me- is, stra-|tum me- um ri- ga- * * * * * * *|
 fgfe dfeg f3 e/d/ e3 d | c3 B/A/ cd B2 A8 |] %31
w: |* * * * * * bo.|

